img/icons/prev.svg

<svg viewBox="0 0 32 79" fill="#38C5F4" xmlns="http://www.w3.org/2000/svg">
<path d="M19.2169 3.7983V16.8199C19.2169 17.7164 19.0858 18.5469 18.8729 18.9943L10.1818 37.3147C9.72341 38.2818 9.72341 40.698 10.1818 41.6651L18.8729 59.9855C19.0858 60.4345 19.2169 61.2634 19.2169 62.1599V75.1815C19.2169 77.1142 18.6438 78.3231 18.1854 77.356L1.2537 41.6651C0.795317 40.698 0.795317 38.2818 1.2537 37.3147L18.1849 1.62385C18.6438 0.656729 19.2169 1.86563 19.2169 3.7983Z"/>
<path d="M18.8729 59.9856L17.8512 57.8315C17.8456 57.8991 17.8413 57.9728 17.8375 58.0451L18.0133 58.4156C18.2262 58.8646 18.3573 59.6936 18.3573 60.59V73.6116C18.3573 75.1942 17.9729 76.2696 17.582 76.0844L18.1858 77.3561C18.6441 78.3232 19.2173 77.1143 19.2173 75.1816V62.16C19.2169 61.2636 19.0857 60.4346 18.8729 59.9856Z"/>
<path d="M10.1818 37.3146L18.873 18.9942C19.0858 18.5452 19.217 17.7163 19.217 16.8198V3.7982C19.217 2.04765 18.7474 0.909402 18.3178 1.42436C18.3411 1.67556 18.357 1.93932 18.357 2.2282V15.2498C18.357 16.1463 18.2258 16.9768 18.013 17.4242L9.3218 35.7446C9.28826 35.8262 9.00145 36.5547 8.9778 37.919C8.95329 39.3493 9.23967 40.2222 9.26719 40.3023C9.54196 40.9978 9.8163 41.6917 10.0911 42.3872C10.0773 42.2114 10.061 41.8974 10.0992 41.5865C10.104 41.5473 10.1096 41.5096 10.1152 41.4766C9.7303 40.4216 9.74879 38.2283 10.1818 37.3146Z"/>
<path d="M19.2169 3.7983V16.8199C19.2169 17.7164 19.0858 18.5469 18.8729 18.9943L10.1818 37.3147C9.72341 38.2818 9.72341 40.698 10.1818 41.6651L18.8729 59.9855C19.0858 60.4345 19.2169 61.2634 19.2169 62.1599V75.1815C19.2169 77.1142 18.6438 78.3231 18.1854 77.356L1.2537 41.6651C0.795317 40.698 0.795317 38.2818 1.2537 37.3147L18.1849 1.62385C18.6438 0.656729 19.2169 1.86563 19.2169 3.7983Z"/>
<path d="M31.0049 3.7983V16.8199C31.0049 17.7164 30.8738 18.5469 30.6609 18.9943L21.9702 37.3147C21.5118 38.2818 21.5118 40.698 21.9702 41.6651L30.6613 59.9855C30.8742 60.4345 31.0053 61.2634 31.0053 62.1599V75.1815C31.0053 77.1142 30.4322 78.3231 29.9738 77.356L13.0417 41.6651C12.5833 40.698 12.5833 38.2818 13.0417 37.3147L29.9729 1.62385C30.4317 0.656729 31.0049 1.86563 31.0049 3.7983Z"/>
<path d="M30.661 59.9856L29.6393 57.8315C29.6337 57.8991 29.6294 57.9728 29.6255 58.0451L29.8014 58.4156C30.0143 58.8646 30.1454 59.6936 30.1454 60.59V73.6116C30.1454 75.1942 29.761 76.2696 29.3701 76.0844L29.9738 77.3561C30.4322 78.3232 31.0054 77.1143 31.0054 75.1816V62.16C31.005 61.2636 30.8738 60.4346 30.661 59.9856Z"/>
<path d="M21.9703 37.3146L30.6614 18.9942C30.8743 18.5452 31.0054 17.7163 31.0054 16.8198V3.7982C31.0054 2.04765 30.5359 0.909402 30.1063 1.42436C30.1295 1.67556 30.1454 1.93932 30.1454 2.2282V15.2498C30.1454 16.1463 30.0143 16.9768 29.8014 17.4242L21.1103 35.7446C21.0767 35.8262 20.7899 36.5547 20.7663 37.919C20.7417 39.3493 21.0281 40.2222 21.0556 40.3023C21.3304 40.9978 21.6048 41.6917 21.8795 42.3872C21.8658 42.2114 21.8494 41.8974 21.8877 41.5865C21.8924 41.5473 21.898 41.5096 21.9036 41.4766C21.5183 40.4216 21.5368 38.2283 21.9703 37.3146Z"/>
<path d="M31.0049 3.7983V16.8199C31.0049 17.7164 30.8738 18.5469 30.6609 18.9943L21.9702 37.3147C21.5118 38.2818 21.5118 40.698 21.9702 41.6651L30.6613 59.9855C30.8742 60.4345 31.0053 61.2634 31.0053 62.1599V75.1815C31.0053 77.1142 30.4322 78.3231 29.9738 77.356L13.0417 41.6651C12.5833 40.698 12.5833 38.2818 13.0417 37.3147L29.9729 1.62385C30.4317 0.656729 31.0049 1.86563 31.0049 3.7983Z"/>
</svg>

<svg viewBox="0 0 32 79" fill="#38C5F4" xmlns="http://www.w3.org/2000/svg"><path d="M19.217 3.798V16.82c0 .896-.131 1.727-.344 2.174l-8.691 18.32c-.459.968-.459 3.384 0 4.351l8.69 18.32c.214.45.345 1.278.345 2.175v13.022c0 1.932-.573 3.141-1.032 2.174L1.254 41.666c-.459-.968-.459-3.384 0-4.351l16.93-35.691c.46-.967 1.033.242 1.033 2.174z"/><path d="M18.873 59.986l-1.022-2.154a7.28 7.28 0 00-.014.213l.176.37c.213.45.344 1.279.344 2.175v13.022c0 1.582-.384 2.658-.775 2.472l.604 1.272c.458.967 1.031-.242 1.031-2.174V62.16c0-.896-.131-1.725-.344-2.174zm-8.691-22.671l8.691-18.32c.213-.45.344-1.279.344-2.175V3.798c0-1.75-.47-2.889-.9-2.374.024.252.04.515.04.804V15.25c0 .896-.131 1.727-.344 2.174l-8.691 18.32c-.034.082-.32.81-.344 2.175-.025 1.43.262 2.303.29 2.383l.823 2.085c-.014-.176-.03-.49.008-.8.005-.04.01-.077.016-.11-.385-1.055-.366-3.249.067-4.162z"/><path d="M19.217 3.798V16.82c0 .896-.131 1.727-.344 2.174l-8.691 18.32c-.459.968-.459 3.384 0 4.351l8.69 18.32c.214.45.345 1.278.345 2.175v13.022c0 1.932-.573 3.141-1.032 2.174L1.254 41.666c-.459-.968-.459-3.384 0-4.351l16.93-35.691c.46-.967 1.033.242 1.033 2.174z"/><path d="M31.005 3.798V16.82c0 .896-.131 1.727-.344 2.174l-8.69 18.32c-.46.968-.46 3.384 0 4.351l8.69 18.32c.213.45.344 1.278.344 2.175v13.022c0 1.932-.573 3.141-1.031 2.174l-16.932-35.69c-.459-.968-.459-3.384 0-4.351l16.93-35.691c.46-.967 1.033.242 1.033 2.174z"/><path d="M30.661 59.986l-1.022-2.154-.014.213.176.37c.213.45.344 1.279.344 2.175v13.022c0 1.582-.384 2.658-.775 2.472l.604 1.272c.458.967 1.031-.242 1.031-2.174V62.16c0-.896-.131-1.725-.344-2.174zM21.97 37.315l8.691-18.32c.213-.45.344-1.279.344-2.175V3.798c0-1.75-.47-2.889-.899-2.374.023.252.04.515.04.804V15.25c0 .896-.132 1.727-.345 2.174l-8.69 18.32c-.034.082-.321.81-.345 2.175-.024 1.43.262 2.303.29 2.383l.823 2.085c-.013-.176-.03-.49.009-.8.004-.04.01-.077.016-.11-.386-1.055-.367-3.249.066-4.162z"/><path d="M31.005 3.798V16.82c0 .896-.131 1.727-.344 2.174l-8.69 18.32c-.46.968-.46 3.384 0 4.351l8.69 18.32c.213.45.344 1.278.344 2.175v13.022c0 1.932-.573 3.141-1.031 2.174l-16.932-35.69c-.459-.968-.459-3.384 0-4.351l16.93-35.691c.46-.967 1.033.242 1.033 2.174z"/></svg>
